X:1
T:Dark-Eyed Sailor
T:Dark-Eyed Sailor
T:LEB/2/60/7
T:Frederick Page, St. Albans, Hertfordshire, 20 Sep 1898
C:Frederick Page,
C:St. Albans, Hertfordshire, 20 Sep 1898
L:1/8
Q:1/4=72
M:3/4
K:G
V:1 treble 
V:1
"^(Editorial suggestion" G2 | B>B B2 AB | GA E2 D2 | GB d2 ed | B>B B3 || B | dd G2 FE | AB c2 BA | %8
 BE E2 D2 | G>A Bc de | (d/e/)c BA GF | G4 |][K:F][M:4/4][Q:1/4=120]"^(Editorial suggestion" G2 | %13
 C2 C2 D2 E2 | F2 G2 z2 G2 | F2 E2 C2 =B,2 | C4 z2 (EF) | G2 G2 cc B2 | A2 G2 z2 GF | E2 C2 E2 F2 | %20
 G4 z2 (EF) | G2 G2"^(a)" cc B2 | A2 G2 z2 G2 | G2 cc B2 A2 | G2 z2 F2 E2 | C2 C2 D2 E2 | %26
 F2 G2 z2 G2 | F2 E2 C2 =B,2 | C4 z2 || G2 | C2 C2 D2 E2 | F2 G2 z2 G2 | F2 E2 C2 =B,2 | %33
 C4 z2 (EF) | G2 G2 cc B2 | A2 G2 z2 GF | E2 C2 E2 F2 | G4 z2 (EF) | G2 G2"^(a) var." c2 B2 | %39
 A2 G2 z2 G2 | G2 cc B2 A2 | G2 z2 F2 E2 | C2 C2 D2 E2 | F2 G2 z2 G2 | F2 E2 C2 =B,2 | C4 z2 |] %46
[K:C][M:4/4][Q:1/4=120]"^(Editorial suggestion" (GF) | E2 (DE) C2"^(a)" GG | E2 (DE) C2 (EF) | %49
 G2"^(b)" GG c2 c2 | G4 z2 (FE) | A3 B c2 (BA) | G3 F E2 C2 |"^(c)" E2 D2 C2 D2 | !fermata!C6 || %55
 (GF) | E2 (DE) C2"^(a) var." G2 | E2 (DE) C2 (EF) | G2"^(b) var." G2 c2 c2 | G4 z2 (FE) | %60
 A3 B c2 (BA) | G3 F E2 C2 |"^(c) var." EE D2 C2 D2 | !fermata!C6 |] %64
[M:3/4][Q:1/4=120]"^(Editorial suggestion" G2 | G2 E3 G | c3 B c2 | A2 F4- | F2 z2 F2 | D2 F3 G | %70
 A2 G3 C | (C2 B,4-) | B,2 z2 G,2 | C2 E3 E | F3 F G2 | A2 G4- | G2 z2 E2 | C2 E3 G | D2 F3 E | %79
 C6- | C2 z2 |] %81

